X:101
T:Blowzabella: New Jig 2
T:Tune
M:6/8
L:1/8
K:Em
P:A
"Em"B2E B2E|B^cd c2B|ede B2B|B^cd c2B|B2E B2E|B^cd c2B|ede B2B|B^cd c2B|
BAF BAF|B^cd c2B|ede B2B|B^cd c2B|BAF BAF|B^cd c2B|ede B2B|B^cd c2B||
P:B
"Em"B2B- BAG|"C"A2A- AGF|"G"G2G GFE|"D"FGF F2E|\
"Em"B2B- BAG|"C"A2A- AGF|"G"G2G GFE|"D"FGF "Em"E3|
"Am"A2A AGF|"G"G2G GFE|"Bm"F2F F2B,|B,^CD C2B,|\
"Am"A2A AGF|"G"G2G GFE|"Bm"F2F FGA|BAG "Em"E3|]
T:Harmony
P:A
G2E G2E|GAB G2E|GFG EFG|B2A GFE|G2E G2E|GAB G2E|GFG EFG|B2A GFE:|
P:B
e2e z2B|c2c z2e|d2d z2g|f2e def|e2e z2B|c2c z2e|d2d z2g|fed e2z|
e2e2e2|g2g2g2|f6-|f6|e2e2e2|g2g2g2|f6-|f3e3|]
